X:41
T:Reel du semeur
R:reel
M:4/4
L:1/8
K:D
FG |: ABAG F2A2 | f4 d4 | ABAG F2A2 | f4 d4 |
e2-ef g2fe | dcde fafd | cBcd egec |1 d2f2 d3A :|2 d2f2 d2df |:
a2g2 e3f | g2f2 d3e | f2e2 B2c2 | dcde fefg |
a2g2 e3f | g2f2 d3c | B2g2 e2c2 |1d2dc d3f :|2 dBAF D4 |]
